icons/filled/hexagon-letter-m.svg

<svg xmlns="http://www.w3.org/2000/svg" width="24" height="24" viewBox="0 0 24 24" fill="currentColor"><path d="M13.666 1.429l6.75 3.98l.096 .063l.093 .078l.106 .074a3.22 3.22 0 0 1 1.284 2.39l.005 .204v7.284c0 1.175 -.643 2.256 -1.623 2.793l-6.804 4.302c-.98 .538 -2.166 .538 -3.2 -.032l-6.695 -4.237a3.23 3.23 0 0 1 -1.678 -2.826v-7.285c0 -1.106 .57 -2.128 1.476 -2.705l6.95 -4.098c1 -.552 2.214 -.552 3.24 .015m2.334 6.571c0 -1.014 -1.336 -1.384 -1.857 -.514l-2.143 3.57l-2.143 -3.57c-.521 -.87 -1.857 -.5 -1.857 .514v8a1 1 0 0 0 1 1l.117 -.007a1 1 0 0 0 .883 -.993v-4.39l1.143 1.904l.074 .108a1 1 0 0 0 1.64 -.108l1.143 -1.904v4.39a1 1 0 0 0 2 0z"/></svg>

<svg xmlns="http://www.w3.org/2000/svg" width="24" height="24" fill="currentColor"><path d="m13.666 1.429 6.75 3.98.096.063.093.078.106.074a3.22 3.22 0 0 1 1.284 2.39l.005.204v7.284c0 1.175-.643 2.256-1.623 2.793l-6.804 4.302c-.98.538-2.166.538-3.2-.032l-6.695-4.237A3.23 3.23 0 0 1 2 15.502V8.217c0-1.106.57-2.128 1.476-2.705l6.95-4.098c1-.552 2.214-.552 3.24.015M16 8c0-1.014-1.336-1.384-1.857-.514L12 11.056l-2.143-3.57C9.336 6.616 8 6.986 8 8v8a1 1 0 0 0 1 1l.117-.007A1 1 0 0 0 10 16v-4.39l1.143 1.904.074.108a1 1 0 0 0 1.64-.108L14 11.61V16a1 1 0 0 0 2 0z"/></svg>
